X:594
%%etbk:tnset id:330,pos:1,rep:3x,ant:
%%etbk:wsite http://thesession.org/tunes/1464
%%etbk:pldat 2014-07-04T16:28
T: From Galway To Dublin
Z: Piano Box Version by Martin Fleischmann
H: Created 2014-07-04 /  Last Modified 2014-07-04
R: hornpipe
M: 4/4
L: 1/8
K: Edor
B,D|!3!:~E3F EDB,D|!4!G!3!F!1!GB !2!A3A|!1!B!2!d!5!gf !3!ed!1!B!3!A|!2!G!1!E~E2 !2!D2B,D|
~E3F EDB,D|GFGB (3ABA GA|Bd gf edBA|1GEED EFGF:|2GEED E2(3Bcd||
|:!3!ezed !1!B2!3!BA|!1!GFGB !5!d2 !1!Bd|!3!efed !1!Bd!1!B!3!A|!2!G!1!E~E2 !2!D2B,D|
~E3F EDB,D|GFGB (3ABA GA|Bd gf edBA|1GEED E2(3Bcd:|2GEED EFGF||


